X: 26
T:Peter Barnes
M:6/8
L:1/8
C:Frank Ferrel
R:Jig
K:A
|:A,CE Ace|a2 a aga|fdd dcd|ecc cBA|
A,CE Ace|a2 a aga|fba gfg|1a3 a3:|2a3 a2 b:|
|:bc'c' c'ba|bee ebc'|d'd'd' d'c'b|c'aa a2 b|
bc'c' c'ba|bee efg|ag/2f/2e dcB|1A3 a2b:|2A3 A3||

